img/icon-cp-dark-1.svg

<svg xmlns="http://www.w3.org/2000/svg" xmlns:xlink="http://www.w3.org/1999/xlink" width="77" height="77" viewBox="0 0 77 77">
  <defs>
    <path id="icon-cp-dark-1-a" d="M38.5000017,0 C59.7629645,-3.90594291e-15 77.0000017,17.2370371 77.0000017,38.5 C77.0000017,59.7629629 59.7629645,77 38.5000017,77 C17.2370388,77 1.66893006e-06,59.7629629 1.66893005e-06,38.5 C1.66893005e-06,17.2370371 17.2370388,3.90594291e-15 38.5000017,0 Z"/>
    <linearGradient id="icon-cp-dark-1-c" x1="50%" x2="50%" y1="113.208%" y2="-96.875%">
      <stop offset="0%" stop-color="#273A9B"/>
      <stop offset="56%" stop-color="#202F65"/>
      <stop offset="100%" stop-color="#021E2F"/>
    </linearGradient>
    <linearGradient id="icon-cp-dark-1-d" x1="50%" x2="50%" y1="142.333%" y2="-116.533%">
      <stop offset="0%" stop-color="#273A9B"/>
      <stop offset="56%" stop-color="#202F65"/>
      <stop offset="100%" stop-color="#021E2F"/>
    </linearGradient>
    <linearGradient id="icon-cp-dark-1-e" x1="50%" x2="50%" y1="142.333%" y2="-116.533%">
      <stop offset="0%" stop-color="#273A9B"/>
      <stop offset="56%" stop-color="#202F65"/>
      <stop offset="100%" stop-color="#021E2F"/>
    </linearGradient>
  </defs>
  <g fill="none" fill-rule="evenodd">
    <mask id="icon-cp-dark-1-b" fill="#fff">
      <use xlink:href="#icon-cp-dark-1-a"/>
    </mask>
    <use fill="#DFE6FF" xlink:href="#icon-cp-dark-1-a"/>
    <g mask="url(#icon-cp-dark-1-b)">
      <g transform="translate(18.646 20.854)">
        <path fill="url(#icon-cp-dark-1-c)" fill-rule="nonzero" d="M14.6460417,57.75 C11.873015,57.75 9.625,55.501985 9.625,52.7289583 L9.625,24.2710417 C9.625,21.498015 11.873015,19.25 14.6460417,19.25 L62.3539583,19.25 C65.126985,19.25 67.375,21.498015 67.375,24.2710417 L67.375,52.7289583 C67.375,55.501985 65.126985,57.75 62.3539583,57.75 L14.6460417,57.75 Z"/>
        <path fill="url(#icon-cp-dark-1-d)" fill-rule="nonzero" d="M60.7497893,19.25 L13.041875,19.25 L13.0418748,19.25 C10.2688322,19.25 8.02083333,21.6853323 8.02083333,24.6894619 C8.02083333,24.6894619 8.02083333,24.6894619 8.02083333,24.6894619 L8.02083333,55.5188722 L8.02083333,55.5188714 C8.02083333,58.5230011 10.2688322,60.9583333 13.0418748,60.9583333 L56.145831,60.9583333 L56.145831,48.4632116 L56.1458308,48.4631531 C56.1414022,46.8796336 56.9518074,45.4253787 58.2473372,44.6920593 L58.2473374,44.6920592 C59.9133125,43.7657901 60.9602077,41.9068635 60.9583333,39.8782571 L60.9583333,19.4759303 L60.7497893,19.25 Z"/>
        <path fill="#FFF" d="M9.20524306,38.5 C4.12136083,38.5 0,36.251985 0,33.4789583 L0,5.02104167 C0,2.248015 4.12136083,0 9.20524306,0 L96.6697569,0 C101.753639,0 105.875,2.248015 105.875,5.02104167 L105.875,33.4789583 C105.875,36.251985 101.753639,38.5 96.6697569,38.5 L9.20524306,38.5 Z"/>
        <path fill="url(#icon-cp-dark-1-e)" fill-rule="nonzero" d="M15.3155142,19.25 L15.3155139,19.25 C12.1727322,19.25 9.625,21.497999 9.625,24.2710417 C9.625,24.2710417 9.625,24.2710417 9.625,24.2710417 L9.625,38.5 L58.476153,38.5 L58.4761528,38.5 C61.6189345,38.5 64.1666667,36.252001 64.1666667,33.4789583 C64.1666667,33.4789583 64.1666667,33.4789583 64.1666667,33.4789583 L64.1666667,19.25 L15.3155142,19.25 Z" opacity=".049"/>
        <path fill="#157AEE" fill-rule="nonzero" d="M34.0767373,12.4440961 C37.835532,16.2028908 37.835532,22.2971092 34.0767373,26.0559039 C30.3179425,29.8146987 24.2237242,29.8146987 20.4649294,26.0559039 C16.7061346,22.2971092 16.7061346,16.2028908 20.4649294,12.4440961 C24.2237242,8.68530131 30.3179425,8.68530131 34.0767373,12.4440961"/>
        <path fill="#8EC3FB" d="M11.6587084 5.98712495C13.224875 7.55329155 13.224875 10.0925418 11.6587084 11.6587084 10.0925418 13.224875 7.55329155 13.224875 5.98712495 11.6587084 4.42095835 10.0925418 4.42095835 7.55329155 5.98712495 5.98712495 7.55329155 4.42095835 10.0925418 4.42095835 11.6587084 5.98712495M46.950375 26.8412916C48.5165417 28.4074582 48.5165417 30.9467084 46.950375 32.512875 45.3842084 34.0790417 42.8449582 34.0790417 41.2787916 32.512875 39.712625 30.9467084 39.712625 28.4074582 41.2787916 26.8412916 42.8449582 25.275125 45.3842084 25.275125 46.950375 26.8412916"/>
      </g>
    </g>
  </g>
</svg>

<svg xmlns="http://www.w3.org/2000/svg" xmlns:xlink="http://www.w3.org/1999/xlink" width="77" height="77"><defs><path id="a" d="M38.5 0C59.763 0 77 17.237 77 38.5S59.763 77 38.5 77 0 59.763 0 38.5 17.237 0 38.5 0z"/><linearGradient id="c" x1="50%" x2="50%" y1="113.208%" y2="-96.875%"><stop offset="0%" stop-color="#273A9B"/><stop offset="56%" stop-color="#202F65"/><stop offset="100%" stop-color="#021E2F"/></linearGradient><linearGradient id="d" x1="50%" x2="50%" y1="142.333%" y2="-116.533%"><stop offset="0%" stop-color="#273A9B"/><stop offset="56%" stop-color="#202F65"/><stop offset="100%" stop-color="#021E2F"/></linearGradient><linearGradient id="e" x1="50%" x2="50%" y1="142.333%" y2="-116.533%"><stop offset="0%" stop-color="#273A9B"/><stop offset="56%" stop-color="#202F65"/><stop offset="100%" stop-color="#021E2F"/></linearGradient></defs><g fill="none" fill-rule="evenodd"><mask id="b" fill="#fff"><use xlink:href="#a"/></mask><use fill="#DFE6FF" xlink:href="#a"/><g mask="url(#b)"><path fill="url(#c)" fill-rule="nonzero" d="M14.646 57.75a5.021 5.021 0 0 1-5.021-5.021V24.271a5.021 5.021 0 0 1 5.021-5.021h47.708a5.021 5.021 0 0 1 5.021 5.021v28.458a5.021 5.021 0 0 1-5.021 5.021H14.646z" transform="translate(18.646 20.854)"/><path fill="url(#d)" fill-rule="nonzero" d="M60.75 19.25H13.042c-2.773 0-5.021 2.435-5.021 5.44v30.829c0 3.004 2.248 5.44 5.02 5.44h43.105V48.462c-.005-1.583.806-3.038 2.101-3.77 1.666-.927 2.713-2.786 2.711-4.815V19.476l-.208-.226z" transform="translate(18.646 20.854)"/><path fill="#FFF" d="M27.851 59.354c-5.084 0-9.205-2.248-9.205-5.021V25.875c0-2.773 4.121-5.021 9.205-5.021h87.465c5.084 0 9.205 2.248 9.205 5.021v28.458c0 2.773-4.121 5.021-9.205 5.021H27.85z"/><path fill="url(#e)" fill-rule="nonzero" d="M15.316 19.25c-3.143 0-5.691 2.248-5.691 5.021V38.5h48.851c3.143 0 5.69-2.248 5.69-5.021V19.25h-48.85z" opacity=".049" transform="translate(18.646 20.854)"/><path fill="#157AEE" fill-rule="nonzero" d="M52.723 33.298A9.625 9.625 0 1 1 39.11 46.91a9.625 9.625 0 0 1 13.612-13.612"/><path fill="#8EC3FB" d="M30.305 26.841a4.01 4.01 0 1 1-5.672 5.672 4.01 4.01 0 0 1 5.672-5.672m35.291 20.854a4.01 4.01 0 1 1-5.671 5.672 4.01 4.01 0 0 1 5.671-5.672"/></g></g></svg>
